X: 41503
T: Uist
R: reel
M: 4/4
K: Dmixolydian
dAAd F2dB|c2Bc ECGE|dAAd F2dA|BcEG ADDA|
dAAd F2dB|c2Bc ECGE|FDAD AABc|ECEG ADDA||
(3DDD AD (3DDD dA|c2Bc ECGE|(3DDD AD (3DDD dA|BcEG ADDA|
(3DDD AD (3DDD dB|c2Bc ECGE|(3DDD AD (3DDD dA|BcEG ADDA||

